icons/solid/desktop-computer.svg

<svg width="24" height="24" viewBox="0 0 24 24" fill="none" xmlns="http://www.w3.org/2000/svg">
<path fill-rule="evenodd" clip-rule="evenodd" d="M2 6C2 4.34315 3.34315 3 5 3H19C20.6569 3 22 4.34315 22 6V14C22 15.6569 20.6569 17 19 17H15V19H16C16.5523 19 17 19.4477 17 20C17 20.5523 16.5523 21 16 21H8C7.44772 21 7 20.5523 7 20C7 19.4477 7.44772 19 8 19H9V17H5C3.34315 17 2 15.6569 2 14V6ZM13 17H11V19H13V17Z" fill="currentColor"/>
</svg>

<svg width="24" height="24" fill="none" xmlns="http://www.w3.org/2000/svg"><path fill-rule="evenodd" clip-rule="evenodd" d="M2 6a3 3 0 013-3h14a3 3 0 013 3v8a3 3 0 01-3 3h-4v2h1a1 1 0 110 2H8a1 1 0 110-2h1v-2H5a3 3 0 01-3-3V6zm11 11h-2v2h2v-2z" fill="currentColor"/></svg>
